!!!COM: Scriabin, Alexander
!!!OTL@@FR: Fragilité
!!!OTL@@EN: Fragilité
!!!OPR@@FR: 4 Morceaux
!!!OPR@@EN: 4 Pieces
!!!OPS: 51
!!!ONM: 1
!!!ODT: 1906
!!!AGN: Miniature
**kern	**kern	**dynam
*staff2	*staff1	*staff1/2
*Ipiano	*Ipiano	*
*clefF4	*clefG2	*
*k[b-e-a-]	*k[b-e-a-]	*
*E-:	*E-:	*
*M2/4	*M2/4	*
=1	=1	=1
*^	*	*
12a-L	[4a-	8r	p
12e-	.	.	.
.	.	8cc 8ee-	.
12cJ	.	.	.
6F-X	6a-]	8ccL 8ee- 8aa-	.
.	.	8a-J 8ee-	.
12c	12c	.	.
=2	=2	=2	=2
12dL	[4d	8a-L 8dd 8gg	.
12A-	.	.	.
.	.	8dd 8gg 8ccc	.
12BB-J	.	.	.
12A-L	6d]	8dd 8gg 8bbn	.
12d	.	.	.
.	.	8bnJ 8dd	.
12a-J	12a-	.	.
=3	=3	=3	=3
12a-L	[4a-	8ccL 8ff	.
12e-	.	.	.
.	.	8cc 8ee-	.
12cJ	.	.	.
6F-X	6a-]	8cc 8ee- 8aa-	.
.	.	8a-J 8ee-	.
12c	12c	.	.
=4	=4	=4	=4
12dL	[4d	8a-L 8dd 8gg	.
12A-	.	.	.
.	.	8dd 8gg 8ccc	.
12BB-J	.	.	.
12A-L	6d]	8dd 8gg 8bb-	.
12d	.	.	.
.	.	8ggJ 8bb- 8ddd	.
12b-J	12b-	.	.
!!LO:LB:g=original
=5	=5	=5	=5
12dL	6d	8aa-L 8fff	<
12A-	.	.	.
.	.	8gg 8ccc 8eee-	.
12e-J	[12e-	.	.
6C	6e-]	8ee- 8gg 8ccc	.
.	.	8ccJ 8ee- 8gg	.
12e-	12e-	.	.
=6	=6	=6	=6
12gL	2g	8r	.
12An	.	.	.
.	.	8e- 8an 8dd	.
12E-J	.	.	.
12FFL	.	8ccL 8ee- 8gg	.
12E-	.	.	.
.	.	8e-J 8bn	.
12AJ	.	.	.
=7	=7	=7	=7
12gL	[4g	8anL 8dd	.
12e-	.	.	.
.	.	8a 8dd-X	.
12AnJ	.	.	.
12FL	6g]	8a 8dd- 8gg	.
12A	.	.	.
.	.	8aJ 8cc	.
12e-J	12g	.	.
=8	=8	=8	=8
12dnL	4g	8a-XL 8cc	.
12A-X	.	.	.
.	.	8a- 8b-	.
12BB-J	.	.	.
12A-L	6en	8a- 8ddn 8gg	>
12d	.	.	.
.	.	8a-J 8dd 8ff	.
12fJ	12f	.	.
=9	=9	=9	=9
12a-L	[4a-	8r	p
12e-X	.	.	.
.	.	8cc 8ee-	.
12cJ	.	.	.
6F-X	6a-]	8ccL 8ee- 8aa-	.
.	.	8a-J 8ee-	.
12c	12c	.	.
!!LO:LB:g=original
=10	=10	=10	=10
12dL	[4d	8a-L 8dd 8gg	.
12A-	.	.	.
.	.	8gg 8bb- 8ddd	.
12BB-J	.	.	.
12A-L	6d]	8dd 8gg 8ccc	<
12d	.	.	.
.	.	8ddJ	.
12ccJ	12cc	.	.
=11	=11	=11	=11
12b-L	[4b-	8ddL 8gg	.
12f	.	.	.
.	.	8dd 8ff	.
12dJ	.	.	.
6G-X	6b-]	8dd 8ff 8bb-	.
.	.	8b-J 8ff	.
12d	12d	.	.
=12	=12	=12	=12
12eL	[4en	8b-L 8een 8aan	.
12B-	.	.	.
.	.	8aa 8ccc 8eeen	.
12CJ	.	.	.
12B-L	6e]	8ee 8aa 8ddd	.
12e	.	.	.
.	.	8aaJ 8ccc 8eee	.
12ccJ	12cc	.	.
=13	=13	=13	=13
12eL	6en	8aanL 8ccc 8ggg	.
12c	.	.	.
.	.	8aa 8ccc 8fff	.
12fJ	[12f	.	.
4AAn	16fLL]	8aa 8ccc 8eeen	.
.	16an	.	>
.	16bn	8eenJ 8aa	.
.	16ccJJ	.	.
*clefG2	*	*	*
=14	=14	=14	=14
12eeL	[4een	8r	pp
12f#X	.	.	.
.	.	8cc 8ff#X 8bbn	.
12cJ	.	.	.
12DL	6ee]	8aanL 8ccc 8eeen	.
12c	.	.	.
.	.	8ccJ 8ff# 8gg#X	.
12f#J	12ee	.	.
!!LO:LB:g=original
=15	=15	=15	=15
12eeL	[4een	8ccL 8ff#X 8bbn	.
12cc	.	.	.
.	.	8cc 8ff# 8bb-X	.
12f#XJ	.	.	.
12dL	6ee]	8ff# 8bb- 8eeen	.
12f#	.	.	.
.	.	8ff#J 8aan	.
12ccJ	12ee	.	.
=16	=16	=16	=16
12bnL	4een	8ffnL 8aan	.
12fn	.	.	.
.	.	8ffJ 8gg	.
12GJ	.	.	.
12cc-XL	4ee-X	12ffL 12gg	.
12f	.	12ff 12bb-	.
12d-XJ	.	12ffJ 12aa-X	.
=17	=17	=17	=17
12b-XL	4ee-	8ff-XL 8aa-	.
12f-X	.	.	.
.	.	8ff-X 8ffnX	.
12G-XJ	.	.	.
12f-L	6ccn	8ff-X 8gg-X	.
12b-	.	.	.
.	.	8ff-J 8ggn	.
12dd-J	12dd-X	.	.
=18	=18	=18	=18
12ffL	[4ffn	8dd-X 8gg 8ccc	.
12gn	.	.	.
.	.	4dd- 4gg 4aan	.
12d-XJ	.	.	.
12E-L	6ff]	.	.
12d-	.	.	.
.	.	8dd- 8gg 8bb-	.
12gJ	12g	.	.
*clefF4	*	*	*
=19	=19	=19	=19
12gL	[4g	8ffL 8gg 8ddd-X	.
12d-X	.	.	.
.	.	8ff 8gg 8ccc	.
12E-J	.	.	.
12AA-L	6g]	8gg 8ccc 8fff	.
12E-	.	.	.
.	.	8ffJ 8gg 8ccc-X	.
12d-J	12g	.	.
!!LO:LB:g=original
=20	=20	=20	=20
4g	[4g	8dd-XL 8ff 8bb-	.
.	.	8dd- 8ff 8bb--	.
4r	8gL]	8ff 8bb-- 8ddd-X	.
.	8ccJ	8gJ 8dd- 8ff	.
=21	=21	=21	=21
12b-XL	[4b-X	8g-XL 8cc 8ff	.
12c	.	.	.
.	.	8g- 8cc 8ddn	.
12G-XJ	.	.	.
12AA-L	6b-]	8g- 8cc 8ee-	.
12G-	.	.	.
.	.	8g-J 8cc 8een	.
12cJ	12c	.	.
=22	=22	=22	=22
12cL	4c	8b-L 8cc 8ff	.
12G-X	.	.	.
.	.	8b- 8cc 8gg-X	.
12CJ	.	.	.
12EE--L	4rA	8b- 8cc 8ff	.
12C	.	.	.
.	.	8b-J 8cc 8gg-	.
12G-J	.	.	.
*v	*v	*	*
=23	=23	=23
12cL	8ccL 8gg-X 8bb-	.
12G-X	.	.
.	8cc 8dd	.
12AA-J	.	.
12G-L	8cc 8ee-X	.
12c	.	.
.	8ccJ 8een	.
12g-XJ	.	.
=24	=24	=24
4r	12ccL 12ff	.
.	12cc 12gg-X	.
.	12ccJ 12ggn	.
4E-- 4c 4g-X	6cc 6gg-X 6aa-	.
.	12cc 12gg- 12aan	.
*clefG2	*	*
!!LO:LB:g=original
=25	=25	=25
*^	*	*
12ccL	4ff	8gg-XL 8bb-	.
12g-X	.	.	.
.	.	8gg-X 8ggn	.
12A-J	.	.	.
12g-L	6dd	8gg-X 8aa-	.
12cc	.	.	.
.	.	8gg-J 8aan	.
12ee-J	12ee-	.	.
=26	=26	=26	=26
12ggnL	[4ggn	8ee- 8aan 8ddd	.
12an	.	.	.
.	.	4ee- 4aa 4bbn	.
12e-J	.	.	.
12FL	6gg]	.	.
12e-	.	.	.
.	.	8ee- 8aa 8ccc	.
12aJ	12a	.	.
*clefF4	*	*	*
=27	=27	=27	=27
12aL	2an	8ggL 8aan 8eee-	.
12e-	.	.	.
.	.	8ggJ 8aa 8ddd	.
12FJ	.	.	.
12BB-XL	.	8aaL 8ddd 8ggg	.
12F	.	.	.
.	.	8ggJ 8aa 8ddd-X	.
12e-J	.	.	.
=28	=28	=28	=28
4a	[4an	8ee-L 8gg 8ccc	.
.	.	8ee-J 8gg 8ccc-X	.
4rAA	8aL]	8ggL 8ccc- 8eee-	.
.	8ddnJ	8anJ 8ee- 8gg	.
=29	=29	=29	=29
12ccL	[4cc	8a-XL 8dd 8gg	.
12d	.	.	.
.	.	8a-J 8dd 8een	.
12A-XJ	.	.	.
12BB-L	6cc]	8a-L 8dd 8ff	.
12A-	.	.	.
.	.	8a-J 8dd 8ff#X	.
12dJ	12d	.	.
!!LO:LB:g=original
=30	=30	=30	=30
12dL	2d	8ccL 8dd 8gg	.
12A-	.	.	.
.	.	8ccJ 8dd 8aa-	.
12DJ	.	.	.
12FF-XL	.	8ccL 8dd 8gg	.
12D	.	.	.
.	.	8ccJ 8dd 8aa-	.
12A-J	.	.	.
=31	=31	=31	=31
12dL	[4d	8ddL 8aa- 8ccc	.
12A-	.	.	.
.	.	8ddJ 8aa- 8ccc-X	.
12BB-J	.	.	.
12A-L	6d]	8ddL 8aa- 8ccc-	.
12d	.	.	.
.	.	8ddJ 8aa- 8bb-	.
12gJ	12g	.	.
=32	=32	=32	=32
2rBB	4.en	8ddL 8aa- 8bb-	.
.	.	8b-J 8dd 8gg	.
.	.	8a-L 8dd 8gg	.
.	8f	8a-J 8dd 8ff	.
=33	=33	=33	=33
12a-L	[4a-	8r	p
12e-X	.	.	.
.	.	8cc 8ee-	.
12cJ	.	.	.
6F-X	6a-]	8ccL 8ee- 8aa-	.
.	.	8a-J 8ee-	.
12c	12c	.	.
=34	=34	=34	=34
12dL	[4d	8a-L 8dd 8gg	.
12A-	.	.	.
.	.	8ddJ 8gg 8ccc	.
12BB-J	.	.	.
12A-L	6d]	8ddL 8gg 8bbn	.
12d	.	.	.
.	.	8bnJ 8dd	.
12a-J	12a-	.	.
!!LO:LB:g=original
=35	=35	=35	=35
12a-L	[4a-	8ccL 8ff	.
12e-	.	.	.
.	.	8ccJ 8ee-	.
12cJ	.	.	.
6F-X	6a-]	8ccL 8ee- 8aa-	.
.	.	8a-J 8ee-	.
12c	12c	.	.
=36	=36	=36	=36
12dL	[4d	8a-L 8dd 8gg	<
12A-	.	.	.
.	.	8ddJ 8gg 8ccc	.
12BB-J	.	.	.
12A-L	6d]	8ddL 8gg 8bb-	.
12d	.	.	.
.	.	8ggJ 8bb- 8ddd	.
12b-J	12b-	.	.
=37	=37	=37	=37
12dL	6d	8aa-L 8fff	f
12A-	.	.	.
.	.	8ggJ 8ccc 8eee-	.
12e-J	[12e-	.	.
6C	6e-]	8ee-L 8gg 8ccc	.
.	.	8a-J 8ee- 8gg	>
12e-	12e-	.	.
=38	=38	=38	=38
12cc#L	[4cc#X	8anL 8dd#X 8gg	pp
12d#X	.	.	.
.	.	8aJ 8dd# 8gg#X	.
12AnJ	.	.	.
12BBnL	6cc#]	8dd#L 8gg# 8ccc#X	.
12A	.	.	.
.	.	8aJ 8dd# 8ee#X	.
12d#J	12cc#	.	.
=39	=39	=39	=39
12cc#L	[4cc#X	8anL 8dd#X 8gg#X	.
12d#X	.	.	.
.	.	8aJ 8dd# 8ggn	.
12AnJ	.	.	.
12BBnL	6cc#]	8dd#L 8gg 8ccc#X	.
12A	.	.	.
.	.	8aJ 8dd# 8ff#X	.
12d#J	12d#	.	.
!!LO:LB:g=original
=40	=40	=40	=40
12g#L	4g#X	8g#XL 8bn 8ff#X	.
12Bn	.	.	.
.	.	8g#J 8b 8een	.
12G#XJ	.	.	.
8BBnL	4ryy	8g#L 8b 8ee	.
8EEnJ	.	8g#J 8b 8dd#X	.
*v	*v	*	*
=41	=41	=41
4BBn 4An 4d#X	8r	<
.	8an 8dd#X 8ff#X	.
4FFn 4E-X 4A 4e-X	8aL 8ee-X 8ggn	.
.	8ee-J 8gg 8dddn	.
=42	=42	=42
*^	*	*
12aL	[4an	8ee-L 8gg 8ccc	p
12e-	.	.	.
.	.	8ee-J 8gg 8ccc-X	.
12AnJ	.	.	.
12BB-L	6a]	8ggL 8ccc- 8eee-	.
12A	.	.	.
.	.	8cc-XJ 8ee- 8gg	.
12e-J	12a	.	.
=43	=43	=43	=43
12ccnL	[4ccn	8a-XL 8dd 8gg	.
12d	.	.	.
.	.	8a-J 8dd 8ff#X	.
12A-XJ	.	.	.
12BB-L	6cc]	8ddL 8ff# 8cccn	.
12A-	.	.	.
.	.	8a-J 8dd 8ff#	.
12dJ	12d	.	.
!!LO:LB:g=original
=44	=44	=44	=44
12gL	4g	12ee-L 12gg 12ccc-X	.
12e-	.	12ee- 12gg 12bb-	.
12GJ	.	12b-J 12ee- 12gg	.
12BB-L	4rc	12gL 12b- 12ee-	.
12EE-J	.	12g 12b- 12dd	.
12rEE	.	12gJ 12b- 12dd-X	.
=45	=45	=45	=45
12fL	[4f	8d-XL 8g 8ccn	pp
12G	.	.	.
.	.	8d-J 8g 8an	.
12D-XJ	.	.	.
12EE-L	6f]	8d-L 8g 8b-	.
12D-	.	.	.
.	.	8d-J 8g 8bn	.
12GJ	12G	.	.
=46	=46	=46	=46
12GL	[4G	8fL 8g 8cc	.
12BB--	.	.	.
.	.	8fJ 8g 8dd-X	.
12EE-J	.	.	.
12BB--L	6G]	8fL 8g 8cc	.
12G	.	.	.
.	.	8fJ 8g 8dd-	.
12d-J	12d-X	.	.
=47	=47	=47	=47
12cL	2c	8b-XL 8cc 8ff	.
12G-X	.	.	.
.	.	8b-J 8cc 8ddn	.
12AA-J	.	.	.
12EE-L	.	8b-L 8cc 8ee-	.
12AA-	.	.	.
.	.	8b-J 8cc 8een	.
12G-J	.	.	.
!!LO:LB:g=original
=48	=48	=48	=48
12cL	6c	8b-L 8cc 8ff	.
12G-X	.	.	.
.	.	8b-J 8cc 8gg-X	.
12fJ	12f	.	.
12f-L	6f-X	8ccL 8gg- 8bb-	.
12G-	.	.	.
.	.	8ccJ 8gg- 8bb--	.
12e-J	12e-	.	.
=49	=49	=49	=49
12dL	[4d	8ccL 8ffn 8aa-	.
12A-	.	.	.
.	.	8ccJ 8dd 8ggn	.
12BB-XJ	.	.	.
12EE-L	6d]	8ddL 8gg 8ccc	.
12BB-	.	.	.
.	.	8ccJ 8dd 8gg-X	.
12A-J	12d	.	.
=50	=50	=50	=50
12dL	[4d	8a-L 8cc 8ff	.
12A-	.	.	.
.	.	8a-J 8cc 8ff-X	.
12BB-J	.	.	.
12EE-L	6d]	8ccL 8ff- 8aa-	.
12BB-	.	.	.
.	.	8f-XJ 8a- 8cc	.
12A-J	12d	.	.
=51	=51	=51	=51
*	*^	*	*
12e-\L	4ryy	4e-	8gL 8cc-X	.
12G	.	.	.	.
.	.	.	8gJ 8b-	.
12E-J	.	.	.	.
12A\L	12ryy	[4An	8e-L 8g 8dd-X	.
12G	[6G/	.	.	.
.	.	.	8e-J 8g 8ccn	.
[12BB-J	.	.	.	.
*	*v	*v	*	*
!!LO:LB:g=original
=52	=52	=52	=52
4BB-] 4G]	8AL]	8e-L 8g 8cc-X	.
.	8B-J	8e-J 8g 8b-	.
4ryy	4rC	12gL 12b- 12ee-	.
.	.	12g 12b- 12ddn	.
.	.	12gJ 12b- 12dd-X	.
=53	=53	=53	=53
12fL	[4f	8d-XL 8g 8ccn	.
12G	.	.	.
.	.	8d-J 8g 8an	.
12D-XJ	.	.	.
12EE-L	6f]	8d-L 8g 8b-	.
12D-	.	.	.
.	.	8d-J 8g 8bn	.
12GJ	12G	.	.
=54	=54	=54	=54
12GL	[4G	8fL 8g 8cc	.
12BB--	.	.	.
.	.	8fJ 8g 8dd-X	.
12EE-J	.	.	.
12BB--L	6G]	8fL 8g 8cc	.
12G	.	.	.
.	.	8fJ 8g 8dd-	.
12d-J	12d-X	.	.
=55	=55	=55	=55
12cL	2c	8b-XL 8cc 8ff	.
12G-X	.	.	.
.	.	8b-J 8cc 8ddn	.
12AA-J	.	.	.
12EE-L	.	8b-L 8cc 8ee-	.
12AA-	.	.	.
.	.	8b-J 8cc 8een	.
12G-J	.	.	.
!!LO:LB:g=original
=56	=56	=56	=56
12cL	6c	8b-L 8cc 8ff	.
12G-X	.	.	.
.	.	8b-J 8cc 8gg-X	.
12fJ	12f	.	.
12f-L	6f-X	8ccL 8gg- 8bb-	.
12G-	.	.	.
.	.	8ccJ 8gg- 8bb--	.
12e-J	12e-	.	.
=57	=57	=57	=57
12dL	[4d	8ccL 8ffn 8aa-	.
12A-	.	.	.
.	.	8ccJ 8dd 8ggn	.
12BB-J	.	.	.
12EE-L	6d]	8ddL 8gg 8ccc	.
12BB-	.	.	.
.	.	8ccJ 8dd 8gg-X	.
12A-J	12d	.	.
=58	=58	=58	=58
12dL	[4d	8a-L 8cc 8ff	.
12A-	.	.	.
.	.	8a-J 8cc 8ff-X	.
12BB-J	.	.	.
12EE-L	6d]	8ccL 8ff- 8aa-	.
12BB-	.	.	.
.	.	8f-XJ 8a- 8cc	.
12A-J	12d	.	.
=59	=59	=59	=59
*	*^	*	*
12e-\L	4ryy	4e-	8gL 8cc-X	.
12G	.	.	.	.
.	.	.	8gJ 8b-	.
12E-J	.	.	.	.
12A\L	12ryy	[4An	8e-L 8g 8dd-X	>
12G	[6G/	.	.	)
.	.	.	8e-J 8g 8ccn	)
[12BB-J	.	.	.	)
*	*v	*v	*	*
!!LO:LB:g=original
=60	=60	=60	=60
4BB-] 4G]	8AL]	8e-L 8g 8cc-X	)
.	8B-J	8e-J 8g 8b-	]
4ryy	4rC	8gL 8b- 8ee-	.
.	.	8b-J 8ee- 8gg	.
=61	=61	=61	=61
12dL	[4d	8ccL 8dd 8aa-X	.
12A-X	.	.	.
.	.	8ccJ 8dd 8gg	.
12BB-J	.	.	.
12EE-L	6d]	8ddL 8gg 8cccn	.
12BB-	.	.	.
.	.	8ccJ 8dd 8gg-X	.
12A-J	12d	.	.
=62	=62	=62	=62
12dL	[4d	8a-L 8cc 8ff	.
12A-	.	.	.
.	.	8a-J 8cc 8ff-X	.
12BB-J	.	.	.
12EE-L	6d]	8ccL 8ff- 8aa-	.
12BB-	.	.	.
.	.	8f-XJ 8a- 8cc	.
12A-J	12d	.	.
=63	=63	=63	=63
*	*^	*	*
12e-\L	4ryy	4e-	8gL 8cc-X	.
12G	.	.	.	.
.	.	.	8gJ 8b-	.
12E-J	.	.	.	.
12A\L	12ryy	[4An	8e-L 8g 8dd-X	.
12G	[6G/	.	.	.
.	.	.	8e-J 8g 8ccn	.
[12BB-J	.	.	.	.
*	*v	*v	*	*
=64	=64	=64	=64
4BB-] 4G]	8AL]	8e-L 8g 8cc-X	.
.	8B-J	8e-J 8g 8b-	.
4ryy	4rC	8gL 8b- 8ee-	.
.	.	8e-J 8g 8b-	.
!!LO:LB:g=original
=65	=65	=65	=65
*^	*	*	*
12e-\L	4ryy	4e-	8gL 8cc-X	.
12G	.	.	.	.
.	.	.	8gJ 8b-	.
12E-J	.	.	.	.
12A\L	12ryy	[4An	8e-L 8g 8dd-X	.
12G	[6G/	.	.	.
.	.	.	8e-J 8g 8ccn	.
[12BB-J	.	.	.	.
*	*v	*v	*	*
=66	=66	=66	=66
4BB-] 4G]	8AL]	8e-L 8g 8cc-X	.
.	8B-J	8e-J 8g 8b-	.
[4BB- [4G	[4An	8e-L 8g 8dd-X	.
.	.	8e-J 8g 8ccn	.
=67	=67	=67	=67
2BB-_ 2G_	8AL]	8e-L 8g 8cc-X	.
.	8B-J	8e-J 8g 8b-	.
.	[4An	[4e- [4g [4dd-X	.
=68	=68	=68	=68
2BB-] 2G]	4.A]	8e-L] 8g] 8dd-]	.
.	.	8e-J 8g 8ccn	.
.	.	8e-L 8g 8cc-X	.
.	8B-	8e-J 8g 8b-	.
*v	*v	*	*
=69	=69	=69
2EE- 2BB- 2G	2e- 2b- 2gg	.
==	==	==
*-	*-	*-
!!!system-decoration: {(*)}
!!!filter: flipper -a
!!!RDF**dynam: > = dim.
!!!ENC: Bryan Jacob Bell
!!!END: November 2021 to April 2022
!!!PED: Günter Philipp
!!!PTL: Ausgewählte Klavierwerke (Edition Peters)
